X: 1
T: O Tannenbaum
M: 3/4
L: 1/4
K: F
"C7b9"C|"F"F/F/"Gm7"FG|"Am"A/A/"D7b9"A>A|"Gm"G/A/"Em7b5"BE|"F"G/F/F"Bbm/C"F/C/|
"F"F/F/"Gm7"FG|"Am"A/A/"Eb9"A>"D7b9"xA/|"Gm"G/A/"Em7b5"BE|"F"G/F/F>c|
"Am7"c/A/"D7b9"d>c|"Gm7"c/B/B>B|B/G/C>"C13"x"Cb13"B/|"Fmaj9"B/A/A"C13b9"A/C/|
"F"F/F/"Gm7"FG|"Am"A/"Eb9"A/"D7b9"A>A|"Gm"G/A/"Em7b5"BE|"F"G/F/F2|]
